icons/core/tag.svg

<svg width="32" height="32" viewBox="0 0 32 32" fill="none" xmlns="http://www.w3.org/2000/svg">
<path fill-rule="evenodd" clip-rule="evenodd" d="M4 2.00003C2.89543 2.00003 2 2.89546 2 4.00003V14.5858C2 15.1162 2.21071 15.625 2.58579 16L16.5858 30C17.3668 30.7811 18.6332 30.7811 19.4142 30L30 19.4142C30.781 18.6332 30.781 17.3669 30 16.5858L16 2.58582C15.6249 2.21074 15.1162 2.00003 14.5858 2.00003H4ZM4 4.00003L14.5858 4.00003L28.5858 18L18 28.5858L4 14.5858V4.00003ZM9 11C9 9.89546 9.89543 9.00003 11 9.00003C12.1046 9.00003 13 9.89546 13 11C13 12.1046 12.1046 13 11 13C9.89543 13 9 12.1046 9 11ZM11 7.00003C8.79086 7.00003 7 8.79089 7 11C7 13.2092 8.79086 15 11 15C13.2091 15 15 13.2092 15 11C15 8.79089 13.2091 7.00003 11 7.00003Z" fill="black"/>
</svg>

<svg viewBox="0 0 32 32" xmlns="http://www.w3.org/2000/svg"><path fill-rule="evenodd" d="M4 2a2 2 0 00-2 2v10.586A2 2 0 002.586 16l14 14a2 2 0 002.828 0L30 19.414a2 2 0 000-2.828l-14-14A2 2 0 0014.586 2H4zm0 2h10.586l14 14L18 28.586l-14-14V4zm5 7a2 2 0 114 0 2 2 0 01-4 0zm2-4a4 4 0 100 8 4 4 0 000-8z"/></svg>
